flaticon/education/library-1.svg

<svg xmlns="http://www.w3.org/2000/svg" width="32" height="32" viewBox="0 0 24 24">
    <path d="M 23.601562 0 L 0.398438 0 C 0.160156 0 0 0.160156 0 0.398438 L 0 23.601562 C 0 23.839844 0.160156 24 0.398438 24 L 23.601562 24 C 23.839844 24 24 23.839844 24 23.601562 L 24 0.398438 C 24 0.160156 23.839844 0 23.601562 0 Z M 14 19.199219 L 11.839844 19.199219 C 12 18.679688 12 18.121094 11.839844 17.601562 L 19.601562 17.601562 C 20.039062 17.601562 20.398438 17.960938 20.398438 18.398438 C 20.398438 18.839844 20.039062 19.199219 19.601562 19.199219 Z M 11.839844 12.800781 L 19.601562 12.800781 C 20.039062 12.800781 20.398438 13.160156 20.398438 13.601562 C 20.398438 14.039062 20.039062 14.398438 19.601562 14.398438 L 11.839844 14.398438 C 12 13.878906 12 13.320312 11.839844 12.800781 Z M 13.039062 15.199219 L 20.800781 15.199219 C 21.238281 15.199219 21.601562 15.558594 21.601562 16 C 21.601562 16.441406 21.238281 16.800781 20.800781 16.800781 L 13.039062 16.800781 C 13.199219 16.28125 13.199219 15.71875 13.039062 15.199219 Z M 20.957031 17.59375 C 21.761719 17.519531 22.398438 16.867188 22.398438 16.039062 C 22.398438 15.21875 21.773438 14.535156 20.972656 14.449219 C 21.117188 14.214844 21.199219 13.9375 21.199219 13.640625 C 21.199219 12.761719 20.480469 12.039062 19.601562 12.039062 L 11.199219 12.039062 C 11.039062 12.039062 10.921875 12.121094 10.839844 12.238281 C 10.761719 12.359375 10.761719 12.519531 10.839844 12.640625 C 11.238281 13.238281 11.238281 14 10.839844 14.601562 C 10.761719 14.71875 10.761719 14.878906 10.839844 15 C 10.921875 15.121094 11.039062 15.199219 11.199219 15.199219 L 12.132812 15.199219 C 12.40625 15.714844 12.40625 16.324219 12.132812 16.839844 L 11.199219 16.839844 C 11.039062 16.839844 10.921875 16.921875 10.839844 17.039062 C 10.761719 17.160156 10.761719 17.320312 10.839844 17.441406 C 11.195312 17.976562 11.234375 18.636719 10.953125 19.199219 L 9.601562 19.199219 L 9.601562 11.601562 C 9.601562 11.359375 9.441406 11.199219 9.199219 11.199219 L 6 11.199219 C 5.761719 11.199219 5.601562 11.359375 5.601562 11.601562 L 5.601562 12 L 2.800781 12 C 2.558594 12 2.398438 12.160156 2.398438 12.398438 L 2.398438 19.199219 L 0.800781 19.199219 L 0.800781 10.398438 L 23.199219 10.398438 L 23.199219 19.199219 L 21 19.199219 C 21.128906 18.976562 21.199219 18.71875 21.199219 18.441406 C 21.199219 18.128906 21.109375 17.839844 20.957031 17.59375 Z M 3.199219 19.199219 L 3.199219 14.398438 L 5.601562 14.398438 L 5.601562 19.199219 Z M 8.800781 12.800781 L 6.398438 12.800781 L 6.398438 12 L 8.800781 12 Z M 5.601562 13.199219 L 5.601562 13.601562 L 3.199219 13.601562 L 3.199219 12.800781 L 5.601562 12.800781 Z M 6.398438 14 L 6.398438 13.601562 L 8.800781 13.601562 L 8.800781 19.199219 L 6.398438 19.199219 Z M 2.398438 5.601562 L 4 5.601562 L 4 9.601562 L 2.398438 9.601562 Z M 12.121094 3 L 13.558594 2.320312 L 13.902344 3.003906 L 12.46875 3.695312 Z M 12 4.597656 L 14.535156 9.601562 L 12 9.601562 Z M 15.398438 9.480469 L 12.839844 4.441406 L 14.320312 3.761719 L 16.71875 8.800781 Z M 11.199219 9.601562 L 9.601562 9.601562 L 9.601562 4 L 11.199219 4 Z M 7.199219 9.601562 L 7.199219 5.601562 L 8.800781 5.601562 L 8.800781 9.601562 Z M 4.800781 9.601562 L 4.800781 6.398438 L 6.398438 6.398438 L 6.398438 9.601562 Z M 11.199219 3.199219 L 9.601562 3.199219 L 9.601562 2.398438 L 11.199219 2.398438 Z M 8.800781 4.800781 L 7.199219 4.800781 L 7.199219 4 L 8.800781 4 Z M 6.398438 5.199219 L 6.398438 5.601562 L 4.800781 5.601562 L 4.800781 4.800781 L 6.398438 4.800781 Z M 4 4.398438 L 4 4.800781 L 2.398438 4.800781 L 2.398438 4 L 4 4 Z M 0.800781 0.800781 L 23.199219 0.800781 L 23.199219 9.601562 L 16.800781 9.601562 L 17.359375 9.320312 C 17.558594 9.238281 17.640625 9 17.558594 8.800781 L 14.800781 3.039062 L 14.121094 1.601562 C 14.078125 1.480469 14 1.441406 13.921875 1.398438 C 13.800781 1.359375 13.679688 1.359375 13.601562 1.398438 L 12 2.171875 L 12 2 C 12 1.761719 11.839844 1.601562 11.601562 1.601562 L 9.199219 1.601562 C 8.960938 1.601562 8.800781 1.761719 8.800781 2 L 8.800781 3.199219 L 6.800781 3.199219 C 6.558594 3.199219 6.398438 3.359375 6.398438 3.601562 L 6.398438 4 L 4.800781 4 L 4.800781 3.601562 C 4.800781 3.359375 4.640625 3.199219 4.398438 3.199219 L 2 3.199219 C 1.761719 3.199219 1.601562 3.359375 1.601562 3.601562 L 1.601562 9.601562 L 0.800781 9.601562 Z M 0.800781 20 L 9.601562 20 L 9.601562 23.199219 L 0.800781 23.199219 Z M 10.398438 20 L 13.601562 20 L 13.601562 23.199219 L 10.398438 23.199219 Z M 23.199219 23.199219 L 14.398438 23.199219 L 14.398438 20 L 23.199219 20 Z M 23.199219 23.199219"/>
    <path d="M5.199219 21.199219C4.960938 21.199219 4.800781 21.359375 4.800781 21.601562 4.800781 21.839844 4.960938 22 5.199219 22 5.441406 22 5.601562 21.839844 5.601562 21.601562 5.601562 21.398438 5.441406 21.199219 5.199219 21.199219zM18.800781 21.199219C18.558594 21.199219 18.398438 21.359375 18.398438 21.601562 18.398438 21.839844 18.558594 22 18.800781 22 19.039062 22 19.199219 21.839844 19.199219 21.601562 19.199219 21.398438 19.039062 21.199219 18.800781 21.199219zM4.398438 15.199219C4.160156 15.199219 4 15.359375 4 15.601562L4 18C4 18.238281 4.160156 18.398438 4.398438 18.398438 4.640625 18.398438 4.800781 18.238281 4.800781 18L4.800781 15.601562C4.800781 15.359375 4.640625 15.199219 4.398438 15.199219zM7.601562 14.398438C7.359375 14.398438 7.199219 14.558594 7.199219 14.800781L7.199219 18C7.199219 18.238281 7.359375 18.398438 7.601562 18.398438 7.839844 18.398438 8 18.238281 8 18L8 14.800781C8 14.558594 7.839844 14.398438 7.601562 14.398438zM7.601562 14.398438"/>
</svg>

<svg xmlns="http://www.w3.org/2000/svg" width="32" height="32" viewBox="0 0 24 24">
    <path d="M23.602 0H.398C.16 0 0 .16 0 .398v23.204c0 .238.16.398.398.398h23.204c.238 0 .398-.16.398-.398V.398C24 .16 23.84 0 23.602 0zM14 19.2h-2.16c.16-.52.16-1.079 0-1.598h7.762a.8.8 0 0 1 .796.796c0 .442-.359.801-.796.801zm-2.16-6.4h7.762a.8.8 0 0 1 0 1.598H11.84c.16-.52.16-1.078 0-1.597zm1.2 2.4h7.76c.438 0 .802.359.802.8 0 .441-.364.8-.801.8h-7.762a2.73 2.73 0 0 0 0-1.6zm7.917 2.394c.805-.074 1.441-.727 1.441-1.555 0-.82-.625-1.504-1.425-1.59.144-.234.226-.511.226-.808 0-.88-.719-1.602-1.597-1.602h-8.403a.427.427 0 0 0-.36.2.375.375 0 0 0 0 .402c.4.597.4 1.359 0 1.96a.368.368 0 0 0 0 .399c.083.121.2.2.36.2h.934a1.743 1.743 0 0 1 0 1.64h-.934a.427.427 0 0 0-.36.2.375.375 0 0 0 0 .401c.356.536.395 1.196.114 1.758H9.602v-7.597c0-.243-.16-.403-.403-.403H6c-.238 0-.398.16-.398.403V12H2.8c-.242 0-.403.16-.403.398V19.2H.801v-8.8h22.398v8.8H21c.129-.222.2-.48.2-.758 0-.312-.09-.601-.243-.847zM3.199 19.199v-4.8h2.403v4.8zm5.602-6.398H6.398V12h2.403zm-3.2.398v.403H3.2V12.8h2.403zm.797.801v-.398h2.403v5.597H6.398zm-4-8.398H4v4H2.398zM12.121 3l1.438-.68.343.684-1.433.691zM12 4.598l2.535 5.004H12zm3.398 4.882L12.84 4.441l1.48-.68 2.399 5.04zm-4.199.122H9.602V4h1.597zm-4 0v-4h1.602v4zm-2.398 0V6.398h1.597v3.204zm6.398-6.403H9.602v-.8h1.597zM8.801 4.801H7.199V4h1.602zm-2.403.398v.403H4.801V4.8h1.597zM4 4.4V4.8H2.398V4H4zM.8.8h22.4v8.8h-6.4l.56-.28c.199-.083.28-.321.199-.52L14.8 3.039l-.68-1.437c-.043-.122-.121-.16-.2-.204-.12-.039-.241-.039-.32 0L12 2.172V2c0-.238-.16-.398-.398-.398H9.199c-.238 0-.398.16-.398.398v1.2h-2c-.242 0-.403.16-.403.402V4H4.801v-.398c0-.243-.16-.403-.403-.403H2c-.238 0-.398.16-.398.403v6H.8zM.8 20h8.802v3.2H.8zm9.598 0h3.204v3.2h-3.204zM23.2 23.2h-8.8V20h8.8zm0 0"/>
    <path d="M5.2 21.2c-.24 0-.4.16-.4.402 0 .238.16.398.4.398.241 0 .402-.16.402-.398a.401.401 0 0 0-.403-.403zm0 0M18.8 21.2c-.241 0-.402.16-.402.402 0 .238.16.398.403.398.238 0 .398-.16.398-.398a.4.4 0 0 0-.398-.403zm0 0M4.398 15.2c-.238 0-.398.16-.398.402V18c0 .238.16.398.398.398.243 0 .403-.16.403-.398v-2.398c0-.243-.16-.403-.403-.403zm0 0M7.602 14.398c-.243 0-.403.16-.403.403V18c0 .238.16.398.403.398.238 0 .398-.16.398-.398v-3.2c0-.241-.16-.402-.398-.402zm0 0"/>
</svg>
